src/assets/advantages/shield-icon.svg

<svg width="60" height="60" viewBox="0 0 60 60" fill="none" xmlns="http://www.w3.org/2000/svg">
<path d="M35.4134 53.9707L29.3176 57.3641L23.2217 53.9707C15.7838 49.8289 11.1509 41.8487 11.1509 33.1706V15.6474C11.1509 13.7535 12.6483 12.2212 14.4936 12.2212H44.1391C45.9868 12.2212 47.4818 13.756 47.4818 15.6474V33.1706C47.4818 41.8461 42.8513 49.8289 35.411 53.9707H35.4134Z" stroke="#F2C247" stroke-linecap="round" stroke-linejoin="round"/>
<path d="M16.9062 2.39209V12.2216" stroke="#F2C247" stroke-linecap="round" stroke-linejoin="round"/>
<path d="M41.7266 2.39209V12.2216" stroke="#F2C247" stroke-linecap="round" stroke-linejoin="round"/>
<path d="M8.27344 5.66846H16.9065" stroke="#F2C247" stroke-linecap="round" stroke-linejoin="round"/>
<path d="M46.043 5.66846H51.4387" stroke="#F2C247" stroke-linecap="round" stroke-linejoin="round"/>
<path d="M21.5825 5.66846H41.7264" stroke="#F2C247" stroke-linecap="round" stroke-linejoin="round"/>
<path d="M25.4035 46.0785H21.2231V28.0885C21.2231 27.3981 21.6316 26.7735 22.2645 26.5004L24.1403 25.6861V17.9151C24.1403 17.384 24.569 16.9541 25.0985 16.9541H27.3198C27.8492 16.9541 28.2779 17.384 28.2779 17.9151V25.6861L29.9495 26.4827" stroke="#F2C247" stroke-linecap="round" stroke-linejoin="round"/>
<path d="M32.554 40.9816C29.8944 40.9816 27.8144 38.623 28.0806 35.904L28.5807 30.7881H36.5273L37.0274 35.904C37.2936 38.623 35.2137 40.9816 32.554 40.9816Z" stroke="#F2C247" stroke-linecap="round" stroke-linejoin="round"/>
<path d="M32.0142 35.1567H36.8703" stroke="#F2C247" stroke-linecap="round" stroke-linejoin="round"/>
<path d="M28.7769 46.0786H36.3308" stroke="#F2C247" stroke-linecap="round" stroke-linejoin="round"/>
<path d="M32.7339 40.9819V46.0787" stroke="#F2C247" stroke-linecap="round" stroke-linejoin="round"/>
</svg>

<svg xmlns="http://www.w3.org/2000/svg" width="60" height="60" fill="none" viewBox="0 0 60 60">
    <path stroke="#F2C247" stroke-linecap="round" stroke-linejoin="round" d="m35.413 53.97-6.095 3.394-6.096-3.393c-7.438-4.142-12.071-12.122-12.071-20.8V15.647c0-1.893 1.497-3.426 3.343-3.426h29.645c1.848 0 3.343 1.535 3.343 3.426v17.524c0 8.675-4.63 16.658-12.071 20.8h.002ZM16.906 2.392v9.83M41.727 2.392v9.83M8.273 5.668h8.634M46.043 5.668h5.396M21.582 5.668h20.144"/>
    <path stroke="#F2C247" stroke-linecap="round" stroke-linejoin="round" d="M25.404 46.078h-4.18v-17.99c0-.69.408-1.315 1.04-1.588l1.876-.814v-7.77a.96.96 0 0 1 .959-.962h2.22c.53 0 .959.43.959.961v7.771l1.672.797"/>
    <path stroke="#F2C247" stroke-linecap="round" stroke-linejoin="round" d="M32.554 40.982c-2.66 0-4.74-2.359-4.473-5.078l.5-5.116h7.946l.5 5.116c.267 2.719-1.813 5.078-4.473 5.078ZM32.014 35.157h4.856M28.777 46.079h7.554M32.734 40.982v5.097"/>
</svg>
